X:145
T: Jianjian hua
N: C1641
O: China, Hebei, Fuping
S: IV, 70]
N: D ZHI, oder) D SHANG, oder) d YU, Kuyin diaoshi
R: Xiaodiao. Fun shi]
M: 2/4
L: 1/16
K: G
dedcd4 | dedcA4 | G3Ad4 | ABADG4
G2GAe2d2 | AdAG=F3G | A2A2dd2A | G2AED4
A2d2=F3G | A2A2dd2A | GA2ED4

